X: 30017
T: Off She Goes
R: jig
M: 6/8
K: Dmajor
M:12/8
|:F2 A G2 B ABc d3|F2 A G2 B AGF E2 D|
F2 A G2 B ABc d2 e|1 f2 d g2 f edc d3:|2 f2 d g2 f edc d2||
|:e|fgf d2 d gfg e2 e|fef def ecB A2 e|
fgf d2 d gfg e2 e|1 fef gec edc d2:|2 fef gec edc d3||

